icons/to-go-cup-two-color.svg

<?xml version="1.0" encoding="UTF-8"?><svg xmlns="http://www.w3.org/2000/svg" viewBox="0 0 50 50"><g id="uuid-e1fb4854-478f-4698-a0db-2342921f13dd"><g><g><path d="M15.12,16.74c7.58,.03,15.17,.06,22.75,.1,.24-2.15,.48-4.3,.72-6.45H14.41c.24,2.12,.47,4.24,.71,6.35Z" fill="#ffcd00"/><path d="M18.77,49.53h15.45c.49-4.65,.98-9.29,1.47-13.94H17.31l1.46,13.94Z" fill="#ffcd00"/></g><path d="M40.44,4.42h-2.66V.97c0-.28-.22-.5-.5-.5H12.72c-.28,0-.5,.22-.5,.5v3.44h-2.66c-.28,0-.5,.22-.5,.5v3.47c0,.28,.22,.5,.5,.5h2.34l.82,7.33h-.7c-.14,0-.28,.06-.37,.17-.09,.11-.14,.25-.12,.39l2.05,18.38c.03,.25,.24,.44,.5,.44h.81l1.45,13c.03,.25,.24,.44,.5,.44h16.35c.25,0,.47-.19,.5-.44l1.45-13h.81c.25,0,.47-.19,.5-.44l2.05-18.38c.02-.14-.03-.28-.12-.39-.09-.11-.23-.17-.37-.17h-.7l.82-7.33h2.34c.28,0,.5-.22,.5-.5v-3.47c0-.28-.22-.5-.5-.5Zm-.5,3.47H10.06v-2.47h29.88v2.47ZM13.22,1.47h23.56v2.94H13.22V1.47Zm1.3,33.11l-1.94-17.38h24.84l-1.94,17.38H14.52Zm18.21,13.44h-15.45l-1.39-12.44h18.23l-1.39,12.44Zm3.55-31.82H13.73l-.82-7.33h24.18l-.82,7.33Z"/></g></g><g id="uuid-e88f0182-ed5e-428e-b489-ccd3119f00c0"><text transform="translate(.02 55.07)" font-family="Roboto-Regular, Roboto" font-size="6"><tspan x="0" y="0" letter-spacing="0em">t</tspan><tspan x="1.9" y="0">o-go-cup</tspan></text></g></svg>

<svg xmlns="http://www.w3.org/2000/svg" viewBox="0 0 50 50"><g id="bba782e6-760d-4d03-b6fb-95a3b7da07c2" data-name="ICONS"><path d="M15.12,16.74l22.75.09.72-6.45H14.41C14.65,12.5,14.88,14.62,15.12,16.74Z" fill="#fdd600"/><path d="M18.77,49.53H34.23L35.7,35.59H17.31Z" fill="#fdd600"/><path d="M40.44,4.42H37.78V1a.5.5,0,0,0-.5-.5H12.72a.5.5,0,0,0-.5.5V4.42H9.56a.5.5,0,0,0-.5.5V8.38a.5.5,0,0,0,.5.5H11.9l.82,7.33H12a.48.48,0,0,0-.37.17.49.49,0,0,0-.13.39l2.05,18.37a.51.51,0,0,0,.5.45h.81l1.45,13a.5.5,0,0,0,.5.45H33.17a.5.5,0,0,0,.5-.45l1.45-13h.81a.51.51,0,0,0,.5-.45l2-18.37a.49.49,0,0,0-.13-.39.48.48,0,0,0-.37-.17h-.7l.82-7.33h2.34a.5.5,0,0,0,.5-.5V4.92A.5.5,0,0,0,40.44,4.42Zm-.5,3.46H10.06V5.42H39.94ZM13.22,1.47H36.78v3H13.22Zm1.3,33.12L12.58,17.21H37.42L35.49,34.59ZM32.73,48H17.27L15.89,35.59H34.11Zm3.54-31.82H13.73l-.82-7.33H37.09Z" fill="#231f20"/></g><g id="ab921f4b-0955-4de4-bda8-c26441c3e834" data-name="LABELS"><text transform="translate(0.02 55.07)" font-size="6" fill="#231f20" font-family="Roboto-Regular, Roboto"><tspan letter-spacing="-0.01em">t</tspan><tspan x="1.9" y="0">o-go-cup</tspan></text></g></svg>
